korla/apps/scalable/com.bixense.PasswordCalculator.svg

<svg width="48" height="48" xmlns="http://www.w3.org/2000/svg">
 <path d="m16 17-3.535156 3.535156 10.464844 10.464844h4.070312v3h3v3h4v4h2v3.070312l.929688.929688h7.070312z" opacity=".2"/>
 <path d="m16 16-3.535156 3.535156 10.464844 10.464844h4.070312v3h3v3h4v4h2v3.070312l.929688.929688h7.070312z" fill="#e8973e"/>
 <path d="m19.535156 13.464844-3.535156 3.535156 28 28v-7.070312z" opacity=".2"/>
 <path d="m19.535156 12.464844-3.535156 3.535156 28 28v-7.070312z" fill="#f0c550"/>
 <path d="m19.535156 12.464844-3.535156 3.535156.5.5 3.035156-3.035156 24.464844 24.464844v-1z" fill="#fff" opacity=".2"/>
 <circle cx="16" cy="17" r="12" opacity=".2"/>
 <circle cx="16" cy="16" r="12" fill="#f0c550"/>
 <circle cx="13" cy="14" r="5" opacity=".2"/>
 <g fill="#fff">
  <circle cx="13" cy="13" r="5"/>
  <path d="m16 4a12 12 0 0 0 -12 12 12 12 0 0 0 .0195312.59375 12 12 0 0 1 11.9804688-11.59375 12 12 0 0 1 11.980469 11.40625 12 12 0 0 0 .019531-.40625 12 12 0 0 0 -12-12z" opacity=".2"/>
 </g>
</svg>

<svg xmlns="http://www.w3.org/2000/svg" width="48" height="48" version="1">
 <path style="opacity:0.2" d="M 16,17 12.464844,20.535156 22.929688,31 H 27 v 3 h 3 v 3 h 4 v 4 h 2 v 3.070312 L 36.929688,45 H 44 Z"/>
 <path style="fill:#e8973e" d="M 16 16 L 12.464844 19.535156 L 22.929688 30 L 27 30 L 27 33 L 30 33 L 30 36 L 34 36 L 34 40 L 36 40 L 36 43.070312 L 36.929688 44 L 44 44 L 16 16 z"/>
 <path style="opacity:0.2" d="M 19.535156,13.464844 16,17 44,45 v -7.070312 z"/>
 <path style="fill:#f0c550" d="M 19.535156 12.464844 L 16 16 L 44 44 L 44 36.929688 L 19.535156 12.464844 z"/>
 <path style="opacity:0.2;fill:#ffffff" d="M 19.535156 12.464844 L 16 16 L 16.5 16.5 L 19.535156 13.464844 L 44 37.929688 L 44 36.929688 L 19.535156 12.464844 z"/>
 <circle style="opacity:0.2" cx="16" cy="17" r="12"/>
 <circle style="fill:#f0c550" cx="16" cy="16" r="12"/>
 <circle style="opacity:0.2" cx="13" cy="14" r="5"/>
 <circle style="fill:#ffffff" cx="13" cy="13" r="5"/>
 <path style="opacity:0.2;fill:#ffffff" d="M 16 4 A 12 12 0 0 0 4 16 A 12 12 0 0 0 4.0195312 16.59375 A 12 12 0 0 1 16 5 A 12 12 0 0 1 27.980469 16.40625 A 12 12 0 0 0 28 16 A 12 12 0 0 0 16 4 z"/>
</svg>
